build/dist/assets/images/services/services-6.svg

<svg width="81" height="65" viewBox="0 0 81 65" fill="none" xmlns="http://www.w3.org/2000/svg">
<path fill-rule="evenodd" clip-rule="evenodd" d="M25.5375 8.74172C27.5212 6.10573 30.4084 4 33.8976 4C37.1378 4 39.3977 5.3599 41.1164 7.25221L39.5345 8.77434C38.1543 7.25472 36.4416 6.22885 33.8976 6.22885C31.3081 6.22885 28.9881 7.79627 27.2495 10.1066C24.6065 13.6188 23.1655 17.7099 23.1655 22.9396C23.1655 25.7464 24.2346 28.4413 26.1431 30.4459C28.4484 32.8672 29.7396 36.1222 29.7396 39.5122V50.3258C29.7396 54.4069 32.9539 57.7153 36.9189 57.7153C39.1408 57.7153 41.1263 56.6777 42.4449 55.0435L44.1108 56.4676C42.3984 58.5897 39.8118 59.9441 36.9189 59.9441C31.7579 59.9441 27.5741 55.6379 27.5741 50.3258V39.5122C27.5742 36.7055 26.5051 34.0105 24.5965 32.0059L24.5965 32.0059C22.2913 29.5847 21 26.3297 21 22.9396C21 17.2327 22.5906 12.6578 25.5375 8.74172L25.5375 8.74172Z" fill="#009B97"/>
<path fill-rule="evenodd" clip-rule="evenodd" d="M26.5157 18.3231C24.9515 15.2501 24.6398 10.7 27.4296 7.72974L28.1942 8.51549C25.8491 11.0123 26.0277 14.9788 27.4618 17.7962C28.6481 20.1267 30.47 21.9829 32.3514 23.8996C32.7704 24.3264 33.1923 24.7562 33.6108 25.1949C35.8729 27.5666 38.1333 30.4274 38.6384 33.9182L38.1085 34.0021L38.6384 33.9182C39.0479 36.7487 38.183 39.7447 36.3443 41.8649L35.9474 41.4883L36.3443 41.865C34.4853 44.0085 31.4827 45.0258 28.8048 45.0258V43.9047C31.271 43.9047 33.9485 42.9588 35.5505 41.1117C37.1727 39.241 37.94 36.5832 37.5786 34.086C37.129 30.9786 35.096 28.3394 32.852 25.9868C32.4593 25.5751 32.0548 25.1636 31.6465 24.7482C29.7586 22.8277 27.7883 20.8233 26.5157 18.3231ZM54.2143 8.87268L54.2163 8.87549L54.2205 8.88142L53.3605 9.55053L53.3543 9.54179L53.3533 9.54039L53.3523 9.53898L53.341 9.52295L54.205 8.85945L54.2143 8.87268Z" fill="#009B97"/>
<path fill-rule="evenodd" clip-rule="evenodd" d="M38.4594 8.74172C40.4089 6.10573 43.2465 4 46.6754 4C50.4469 4 52.84 5.90337 54.6053 8.28245C54.6056 8.28263 54.606 8.28282 54.6063 8.28301C54.6169 8.2964 54.6307 8.31453 54.6341 8.31912L54.6395 8.32652L54.643 8.33149L54.6444 8.33341L54.6456 8.33508L54.6469 8.33686L54.6482 8.33879L54.6483 8.33895L54.6485 8.33912L54.6486 8.33935L54.6496 8.34069L54.6511 8.34284L54.6587 8.35363L54.6591 8.35414L54.6589 8.35425C54.6588 8.35408 54.6587 8.3539 54.6586 8.35373L54.6582 8.35405C54.6583 8.35421 54.6584 8.35438 54.6585 8.35455L54.0736 8.80708L54.6588 8.35497C54.6608 8.35768 54.6628 8.36038 54.6648 8.36308C54.6629 8.36015 54.6614 8.35789 54.6605 8.35663C54.6601 8.35596 54.6596 8.35531 54.6592 8.35469L54.6594 8.35452L54.6705 8.37023L54.6702 8.37047C54.6722 8.37323 54.6742 8.37599 54.6762 8.37875L54.6816 8.38602L54.6868 8.39339C59.3156 14.9452 60.9832 23.2763 59.4396 31.2448C59.033 33.3438 58.8282 35.4802 58.8282 37.6219V50.3258C58.8282 55.6379 54.7165 59.9441 49.6445 59.9441C44.5725 59.9441 40.4608 55.6379 40.4608 50.3258V39.5122C40.4609 36.7055 39.4103 34.0105 37.5345 32.0059C35.2689 29.5847 34 26.3297 34 22.9396C34 17.2327 35.5632 12.6578 38.4594 8.74172ZM54.6698 8.37077L52.9584 9.69286C52.964 9.70019 52.9711 9.70939 52.9771 9.71703C52.9774 9.71722 52.9777 9.7174 52.978 9.71758L53.8314 9.05627L52.9949 9.72707C53.6589 10.0871 54.8315 9.22266 54.6855 8.39534C54.6854 8.39512 54.6852 8.39491 54.6851 8.39469C54.6821 8.38985 54.6787 8.38454 54.6754 8.37943C54.6735 8.37643 54.6716 8.3735 54.6698 8.37077ZM52.9813 9.72654C51.4749 7.66864 49.6338 6.22885 46.6754 6.22885C44.1307 6.22885 41.8505 7.79628 40.1419 10.1066C37.5443 13.6188 36.1281 17.7099 36.1281 22.9396C36.1281 25.7463 37.1787 28.4413 39.0545 30.4459C41.32 32.8671 42.589 36.1221 42.589 39.5122V50.3258C42.589 54.4069 45.7479 57.7153 49.6445 57.7153C53.5411 57.7153 56.7 54.4069 56.7 50.3258V37.6219C56.7 35.3313 56.9191 33.0465 57.354 30.8016C58.7809 23.4355 57.2366 15.7542 52.9813 9.72654ZM54.6592 8.35469C54.6591 8.35454 54.659 8.35439 54.6589 8.35425L54.6585 8.35455C54.6586 8.35469 54.6587 8.35483 54.6588 8.35497L54.6592 8.35469Z" fill="#009B97"/>
<path fill-rule="evenodd" clip-rule="evenodd" d="M38.821 18.3231C37.2199 15.2501 36.9009 10.7 39.7563 7.72974L40.5389 8.51549C38.1386 11.0123 38.3214 14.9788 39.7893 17.7962L39.7893 17.7962C41.0035 20.1267 42.8684 21.9829 44.7941 23.8996C45.2229 24.3264 45.6547 24.7562 46.083 25.1949C48.3985 27.5666 50.712 30.4274 51.229 33.9182C51.6483 36.7487 50.763 39.7447 48.8809 41.865C46.9782 44.0085 43.9049 45.0258 41.164 45.0258V43.9047C43.6882 43.9047 46.4287 42.9588 48.0684 41.1117L48.4747 41.4883L48.0684 41.1116C49.7289 39.241 50.5143 36.5832 50.1443 34.0861L50.1443 34.086C49.6841 30.9786 47.6033 28.3394 45.3064 25.9868C44.9045 25.5751 44.4905 25.1636 44.0725 24.7482C42.1403 22.8277 40.1236 20.8233 38.821 18.3231Z" fill="#009B97"/>
</svg>

<svg width="81" height="65" fill="none" xmlns="http://www.w3.org/2000/svg"><path fill-rule="evenodd" clip-rule="evenodd" d="M25.538 8.742C27.52 6.106 30.408 4 33.898 4c3.24 0 5.5 1.36 7.218 3.252l-1.581 1.522c-1.38-1.52-3.093-2.545-5.637-2.545-2.59 0-4.91 1.567-6.649 3.878-2.642 3.512-4.083 7.603-4.083 12.833a10.89 10.89 0 002.977 7.506c2.305 2.421 3.597 5.676 3.597 9.066v10.814c0 4.08 3.214 7.39 7.179 7.39 2.222 0 4.207-1.038 5.526-2.672l1.666 1.424c-1.713 2.122-4.3 3.476-7.192 3.476-5.161 0-9.345-4.306-9.345-9.618V39.512a10.89 10.89 0 00-2.978-7.506C22.291 29.585 21 26.33 21 22.94c0-5.707 1.59-10.282 4.538-14.198z" fill="#009B97"/><path fill-rule="evenodd" clip-rule="evenodd" d="M26.516 18.323C24.952 15.25 24.64 10.7 27.43 7.73l.764.785c-2.345 2.497-2.166 6.464-.732 9.281 1.186 2.33 3.008 4.187 4.89 6.104.418.426.84.856 1.259 1.295 2.262 2.372 4.522 5.232 5.027 8.723l-.53.084.53-.084c.41 2.83-.455 5.827-2.294 7.947l-.397-.377.397.377c-1.859 2.143-4.861 3.16-7.54 3.16v-1.12c2.467 0 5.145-.946 6.747-2.793 1.622-1.871 2.389-4.529 2.028-7.026-.45-3.107-2.483-5.747-4.727-8.1-.393-.41-.797-.822-1.205-1.238-1.888-1.92-3.859-3.925-5.131-6.425zm27.698-9.45l.002.002.005.006-.86.67-.007-.01-.002-.002-.011-.016.864-.664.01.014z" fill="#009B97"/><path fill-rule="evenodd" clip-rule="evenodd" d="M38.46 8.742C40.408 6.106 43.245 4 46.674 4c3.772 0 6.165 1.903 7.93 4.282l.001.001.028.036.005.008.004.004.001.002.002.002v.002l.002.002.002.002.001.002.008.01v.001l-.585.453.585-.452a5.704 5.704 0 00.002.002l-.002-.002.011.015.006.009.006.007.005.007c4.629 6.552 6.296 14.883 4.753 22.852a33.54 33.54 0 00-.612 6.377v12.704c0 5.312-4.111 9.618-9.184 9.618-5.072 0-9.183-4.306-9.183-9.618V39.512c0-2.806-1.05-5.502-2.926-7.506C35.269 29.585 34 26.33 34 22.94c0-5.707 1.563-10.282 4.46-14.198zm16.21-.371l-1.712 1.322a2.457 2.457 0 00.02.025l.853-.662-.836.671c.664.36 1.837-.504 1.69-1.332a1.006 1.006 0 00-.015-.024zm-1.69 1.356c-1.506-2.058-3.347-3.498-6.306-3.498-2.544 0-4.825 1.567-6.533 3.878-2.598 3.512-4.014 7.603-4.014 12.833 0 2.806 1.05 5.501 2.926 7.506 2.266 2.421 3.535 5.676 3.535 9.066v10.814c0 4.08 3.159 7.39 7.056 7.39 3.896 0 7.055-3.31 7.055-7.39V37.622c0-2.29.22-4.575.654-6.82 1.427-7.366-.117-15.048-4.373-21.075zm1.678-1.372z" fill="#009B97"/><path fill-rule="evenodd" clip-rule="evenodd" d="M38.821 18.323c-1.601-3.073-1.92-7.623.935-10.593l.783.785c-2.4 2.497-2.218 6.464-.75 9.281 1.215 2.33 3.08 4.187 5.005 6.104.429.426.86.856 1.289 1.295 2.316 2.372 4.629 5.232 5.146 8.723.42 2.83-.466 5.827-2.348 7.947-1.903 2.143-4.976 3.16-7.717 3.16v-1.12c2.524 0 5.265-.946 6.904-2.793l.407.376-.407-.376c1.66-1.871 2.446-4.529 2.076-7.026-.46-3.107-2.54-5.747-4.838-8.1-.401-.41-.816-.822-1.233-1.238-1.933-1.92-3.95-3.925-5.252-6.425z" fill="#009B97"/></svg>
